src/components/footer/property.svg

<svg viewBox="0 0 14 14" xmlns="http://www.w3.org/2000/svg"><path d="m4.91764922 3.51260564h3.37293535c1.04373771 0 1.83990863-2.26342501 1.83990863-2.26342501 0-.67785431-.0678681-1.19069261-1.22684335-1.22682907-1.15861884-.03649283-1.43619243.81016933-2.26885618.81016933-.8534618 0-1.28035664-.665595-2.33056612-.81016933-1.04986736-.14524431-1.22648695.54897476-1.22648695 1.22682907.00000001.00001425.79582881 2.26342501 1.83990862 2.26342501zm3.55705308.69967874h-3.55705308c-3.93897334 0-4.90631844 7.73844712-4.90631844 7.73844712 0 1.0164536.82381139 2.0373548 1.83990861 2.0373548h9.68953061c1.0161115 0 1.8398944-1.0209012 1.8398944-2.0373548.0000142.0000143-.9676587-7.73844712-4.9059621-7.73844712zm.40373044 5.94729072c.23731744 0 .42964606.1926564.42964606.4299881 0 .2373032-.19231437.4299597-.42964606.4299597h-1.74410068v1.1279563c0 .2373032-.19231436.4299882-.42928967.4299882-.23731744 0-.42961754-.192685-.42961754-.4299882v-1.1279563h-1.75536214c-.23730318 0-.42961754-.1926565-.42961754-.4299597 0-.2373317.19231436-.4299881.42961754-.4299881h1.75536214v-.54553934h-1.75536214c-.23730318 0-.42961754-.19232862-.42961754-.42964606s.19231436-.43031603.42961754-.43031603h1.18660142l-1.21489762-2.15906408c-.11865872-.20595641-.04808216-.46850522.15719-.58714968.20560003-.11867297.4681631-.04842427.58682182.15683364l1.46279228 2.58938012h.07398351l1.46279228-2.58938012c.11864446-.20525791.38120752-.27552086.5864797-.15683364.2056143.11864446.27620511.38119327.15753214.58714968l-1.21489763 2.15906408h1.11397214c.23731745 0 .42964606.19298434.42964606.43031603 0 .23730318-.19231436.42964606-.42964606.42964606h-1.74410067v.54553934z" fill-rule="evenodd" transform=""/></svg>

<?xml version="1.0" encoding="UTF-8"?>
<svg viewBox="0 0 14 14" version="1.1" xmlns="http://www.w3.org/2000/svg" xmlns:xlink="http://www.w3.org/1999/xlink">
    <!-- Generator: Sketch 47 (45396) - http://www.bohemiancoding.com/sketch -->
    <title>Shape</title>
    <desc>Created with Sketch.</desc>
    <defs></defs>
    <g id="Symbols" stroke="none" stroke-width="1" fill-rule="evenodd">
        <g id="底部导航" transform="translate(-40.000000, -6.000000)">
            <g id="Group">
                <g id="钱-(1)" transform="translate(40.000000, 6.000000)">
                    <path d="M4.91764922,3.51260564 L8.29058457,3.51260564 C9.33432228,3.51260564 10.1304932,1.24918063 10.1304932,1.24918063 C10.1304932,0.57132632 10.0626251,0.0584880159 8.90364985,0.0223515642 C7.74503101,-0.0141412677 7.46745742,0.832520894 6.63479367,0.832520894 C5.78133187,0.832520894 5.35443703,0.166925887 4.30422755,0.0223515642 C3.25436019,-0.122892752 3.0777406,0.57132632 3.0777406,1.24918063 C3.07774061,1.24919488 3.87356941,3.51260564 4.91764922,3.51260564 L4.91764922,3.51260564 Z M8.4747023,4.21228438 L4.91764922,4.21228438 C0.978675879,4.21228438 0.0113307781,11.9507315 0.0113307781,11.9507315 C0.0113307781,12.9671851 0.835142167,13.9880863 1.85123939,13.9880863 L11.54077,13.9880863 C12.5568815,13.9880863 13.3806644,12.9671851 13.3806644,11.9507315 C13.3806786,11.9507458 12.4130057,4.21228438 8.4747023,4.21228438 L8.4747023,4.21228438 Z M8.87843274,10.1595751 C9.11575018,10.1595751 9.3080788,10.3522315 9.3080788,10.5895632 C9.3080788,10.8268664 9.11576443,11.0195229 8.87843274,11.0195229 L7.13433206,11.0195229 L7.13433206,12.1474792 C7.13433206,12.3847824 6.9420177,12.5774674 6.70504239,12.5774674 C6.46772495,12.5774674 6.27542485,12.3847824 6.27542485,12.1474792 L6.27542485,11.0195229 L4.52006271,11.0195229 C4.28275953,11.0195229 4.09044517,10.8268664 4.09044517,10.5895632 C4.09044517,10.3522315 4.28275953,10.1595751 4.52006271,10.1595751 L6.27542485,10.1595751 L6.27542485,9.61403576 L4.52006271,9.61403576 C4.28275953,9.61403576 4.09044517,9.42170714 4.09044517,9.1843897 C4.09044517,8.94707226 4.28275953,8.75407367 4.52006271,8.75407367 L5.70666413,8.75407367 L4.49176651,6.59500959 C4.37310779,6.38905318 4.44368435,6.12650437 4.64895651,6.00785991 C4.85455654,5.88918694 5.11711961,5.95943564 5.23577833,6.16469355 L6.69857061,8.75407367 L6.77255412,8.75407367 L8.2353464,6.16469355 C8.35399086,5.95943564 8.61655392,5.88917269 8.8218261,6.00785991 C9.0274404,6.12650437 9.09803121,6.38905318 8.97935824,6.59500959 L7.76446061,8.75407367 L8.87843275,8.75407367 C9.1157502,8.75407367 9.30807881,8.94705801 9.30807881,9.1843897 C9.30807881,9.42169288 9.11576445,9.61403576 8.87843275,9.61403576 L7.13433208,9.61403576 L7.13433208,10.1595751 L8.87843274,10.1595751 L8.87843274,10.1595751 Z" id="Shape"></path>
                </g>
            </g>
        </g>
    </g>
</svg>
